images/icons/3-drops.svg

<?xml version="1.0" encoding="UTF-8"?>
<svg width="24px" height="16px" viewBox="0 0 24 16" version="1.1" xmlns="http://www.w3.org/2000/svg" xmlns:xlink="http://www.w3.org/1999/xlink">
    <title>Icon/Big/HighSun Copy 2</title>
    <g id="desktop" stroke="none" stroke-width="1" fill="none" fill-rule="evenodd">
        <g id="d.-results" transform="translate(-664.000000, -1792.000000)" fill="#6E6E6E">
            <g id="triostar" transform="translate(502.000000, 1584.000000)">
                <g id="Icon/Big/ThreeDrops" transform="translate(162.000000, 208.000000)">
                    <path d="M7.0128,0.0580535833 C7.2864,0.298916495 13.7142857,5.99681624 13.7142857,9.51354448 C13.7142857,13.0901641 10.6381714,15.9999784 6.85714286,15.9999784 C3.07611429,15.9999784 -1.42791766e-14,13.0901641 -1.42791766e-14,9.51354448 C-1.42791766e-14,5.99681624 6.42788571,0.298916495 6.70148571,0.0580535833 C6.78925714,-0.0193511944 6.92502857,-0.0193511944 7.0128,0.0580535833 Z M12.0413714,0.0580752048 C12.3149714,0.298938117 18.7428571,5.99683786 18.7428571,9.51356611 C18.7428571,13.0901858 15.6667429,16 11.8857143,16 C11.6752,16 11.4614857,15.9907028 11.2509714,15.9725408 C11.1252571,15.9615138 11.0326857,15.8564336 11.0443429,15.7375156 C11.0557714,15.6185977 11.1664,15.5310308 11.2928,15.5418416 C11.4893714,15.5589225 11.6889143,15.5675711 11.8857143,15.5675711 C15.4146286,15.5675711 18.2857143,12.8517012 18.2857143,9.51356611 C18.2857143,6.47510426 12.8797714,1.41871282 11.8854857,0.514720151 C11.6212571,0.754285776 11.0450286,1.286822 10.3474286,1.99146493 C10.2608,2.07838315 10.1161143,2.08292365 10.0242286,2.0014108 C9.93211429,1.91989795 9.92731429,1.78303419 10.0137143,1.69589976 L10.3116672,1.39791324 C11.1308714,0.586533299 11.7235128,0.0638788562 11.7300571,0.0580752048 C11.8178286,-0.019329573 11.9536,-0.019329573 12.0413714,0.0580752048 Z M17.2985143,0.0580752048 C17.5721143,0.298938117 24,5.99683786 24,9.51356611 C24,13.0901858 20.9238857,16 17.1428571,16 C16.9323429,16 16.7186286,15.9907028 16.5081143,15.9725408 C16.3824,15.9615138 16.2898286,15.8564336 16.3014857,15.7375156 C16.3129143,15.6185977 16.4228571,15.5310308 16.5499429,15.5418416 C16.7465143,15.5589225 16.9460571,15.5675711 17.1428571,15.5675711 C20.6717714,15.5675711 23.5428571,12.8517012 23.5428571,9.51356611 C23.5428571,6.47510426 18.1369143,1.41871282 17.1426286,0.514720151 C16.8784,0.754285776 16.3021714,1.286822 15.6045714,1.99146493 C15.5177143,2.07838315 15.3734857,2.08292365 15.2813714,2.0014108 C15.1892571,1.91989795 15.1844571,1.78303419 15.2708571,1.69589976 L15.56881,1.39791324 C16.3880142,0.586533299 16.9806556,0.0638788562 16.9872,0.0580752048 C17.0749714,-0.019329573 17.2107429,-0.019329573 17.2985143,0.0580752048 Z M6.85714286,0.514698529 C5.8624,1.41933984 0.457142857,6.47529885 0.457142857,9.51354448 C0.457142857,12.8518958 3.32822857,15.5675495 6.85714286,15.5675495 C10.3860571,15.5675495 13.2571429,12.8518958 13.2571429,9.51354448 C13.2571429,6.47529885 7.85188571,1.41933984 6.85714286,0.514698529 Z" id="Combined-Shape"></path>
                </g>
            </g>
        </g>
    </g>
</svg>

<svg width="24" height="16" xmlns="http://www.w3.org/2000/svg"><path d="M7.013.058c.273.24 6.701 5.939 6.701 9.456 0 3.576-3.076 6.486-6.857 6.486C3.077 16 0 13.09 0 9.514 0 5.997 6.428.299 6.701.058a.238.238 0 01.312 0zm5.028 0c.274.24 6.702 5.939 6.702 9.456 0 3.576-3.076 6.486-6.857 6.486-.21 0-.425-.01-.635-.027a.22.22 0 01-.207-.235.225.225 0 01.249-.196c.196.017.396.026.593.026 3.529 0 6.4-2.716 6.4-6.054 0-3.039-5.406-8.095-6.4-9-.265.24-.841.773-1.539 1.477a.238.238 0 01-.323.01.208.208 0 01-.01-.305l.298-.298C11.13.587 11.724.064 11.73.058a.238.238 0 01.311 0zm5.258 0C17.572.298 24 5.997 24 9.514 24 13.09 20.924 16 17.143 16c-.21 0-.424-.01-.635-.027a.22.22 0 01-.207-.235.225.225 0 01.249-.196c.197.017.396.026.593.026 3.529 0 6.4-2.716 6.4-6.054 0-3.039-5.406-8.095-6.4-9-.265.24-.84.773-1.538 1.477a.238.238 0 01-.324.01.208.208 0 01-.01-.305l.298-.298C16.388.587 16.98.064 16.987.058a.238.238 0 01.312 0zM6.857.515c-.995.904-6.4 5.96-6.4 8.999 0 3.338 2.871 6.054 6.4 6.054 3.53 0 6.4-2.716 6.4-6.054 0-3.039-5.405-8.095-6.4-9z" fill="#6E6E6E" fill-rule="evenodd"/></svg>
